X:1
T:The Mary L. McKay
M:6/8
L:1/4
K:C
 c B/2| A B/2 A G/2| E D/2 C E/2| G E/2 D D/2| D3/2 z G/2| A A/2 A G/2|\
 A d/2 d e/2| d c/2 A B/2| c3/2 z B/2| A B/2 A G/2| A d3/2 e/2| d c/2 A B/2|\
M:8/8
 c3/2 d2 c/2|
M:6/8
 A A/2 A G/2| E D/2 C E/2| G E/2 D D/2| D3| z3/2||
